markets/BNT.svg

<svg width="42" height="42" viewBox="0 0 42 42" fill="none" xmlns="http://www.w3.org/2000/svg">
<path d="M21 42C32.598 42 42 32.598 42 21C42 9.40202 32.598 0 21 0C9.40202 0 0 9.40202 0 21C0 32.598 9.40202 42 21 42Z" fill="black"/>
<path d="M20.5285 8L14.5986 11.4742L20.5285 14.9497L26.5699 11.4742L20.5285 8ZM21.5037 26.5509V33.5006L29.5585 28.9055V21.9545L21.5037 26.5509V26.5509ZM27.5451 13.6595V20.6105L21.5024 24.086V17.135L27.5451 13.6595ZM13 20.6105L19.0428 24.086V17.135L13 13.6595V20.6105ZM13 30.0264L19.0428 33.5006V26.5509L13 23.0767V30.0251V30.0264Z" fill="white"/>
</svg>

<svg xmlns="http://www.w3.org/2000/svg" width="42" height="42" fill="none"><path fill="#000" d="M21 42c11.598 0 21-9.402 21-21S32.598 0 21 0 0 9.402 0 21s9.402 21 21 21Z"/><path fill="#fff" d="m20.529 8-5.93 3.474 5.93 3.476 6.04-3.476L20.53 8Zm.975 18.55v6.95l8.054-4.595v-6.95l-8.054 4.596Zm6.041-12.89v6.95l-6.043 3.476v-6.951l6.043-3.476ZM13 20.61l6.043 3.476v-6.951L13 13.659v6.951Zm0 9.416 6.043 3.475v-6.95L13 23.077V30.026Z"/></svg>
